X:1
T:Illumina oculos meos
T:Illumina oculos meos
T:Giovanni Pierluigi da Palestrina
C:Giovanni Pierluigi da Palestrina
%%score [ 1 2 3 ]
L:1/8
M:2/2
K:G
V:1 treble nm="Stimme"
V:2 treble nm="Stimme"
V:3 treble nm="Stimme"
V:1
"^1." D4 E3 E |"^2." F2 B2- BA G2 |"^3." (A2 GF GABc | d2) D2 z2 E2 | %4
w: Il- lu- mi-|na o- * cu- los|me- * * * * * *|* os, ne|
"^3.""^(     )" !fermata!D2 B,2 E2 G>G |"^2.""^(     )" !fermata!F2 F2 (GABG | %6
w: un- quam od- dor- mi-|am in mor- * * *|
 A2)"^1.""^(     )" !fermata!D2 z4 | D4 E3 E | F2 B2- BA G2 | (A2 GF GABc | d2) D2 z2 E2 | %11
w: * te.|||||
 D2 B,2 E2 G>G | F2 F2 (GABG | A2) D2 z4 |] %14
w: |||
V:2
 z8 | D4 E3 E | F2 B2- BA G2 | (A2 GF GABc | d2) D2 z2 E2 | D2 B,2 E2 G>G | F2 F2 (GABG | %7
 A2) D2 z4 | D4 E3 E | F2 B2- BA G2 | (A2 GF GABc | d2) D2 z2 E2 | D2 B,2 E2 G>G | F2- F2 z4 |] %14
V:3
 z8 | z8 | D4 E3 E | F2 B2- BA G2 | (A2 GF GABc | d2) D2 z2 E2 | D2 B,2 E2 G>G | F2 F2 (GABG | %8
 A2) D2 z4 | D4 E3 E | F2 B2- BA G2 | (A2 GF GABc | d2) D2 z2 E2 | D2- D2 z4 |] %14

